X: 4318
M: C
L: 1/4
K: G
[|\
g3 B | c3 d | f e2 c | A3 ^A |\
g3 ^d | f3 e | d3 c | (^A2 B)d |\
g3 ^d | f3 e | d e2 d | G3 z |]


